X: 1
T:Last Night's Fun
C:Trad
S:Vesey \& Brady: The First Month of Spring
M:4/4
K:D
dB |: AD (3FED A2 (3Bcd | AD (3FED EFGB | AD (3FED A2 (3Bcd |\
 (3efg fe dB B2:|\
dff2 aff2 | dff2 egfe | eff2 aff2 | (3efg fe dB B2 |\
dff2 aff2 | eff2 e2 fg | (3agf bf afeg | (3fgf ed BcdB ||
